X:1
T:Miss Shepherd's Reel
M:C
L:1/8
K:Am
A,B,C(D E2) DC | B,(G ^F)(G D)B,G,B,| A 19c ,B, CD EC Ec |BA GB Bc A2:||!
(^ga) e(d ^cB A)^F|GE D(C B,A,) G,2|(^ga) e(d ^cB A)^F|GA Bd ^cA (3AAA A|!
^ga ed ^cB A(^F|G)E D(C B),A, G,(B,| A,)B, C(D E)C E(c|B)A G(B B)c A2|]
